X:600
M:C
L:1/8
K:C
E/F/|G>E G<c G>E G<c|e>d c<e d/d/d dE/F/|G>E G<c G>E G<c|
e/f/|~g>a g<e ~g>a g<e|c>e g<e d/d/d de/f/|~g>a g<e ~g>a g<e|
f<d g>e c/c/c ~cf/g/|a<f f>a g<e e>g|f<ae<g D/D/D D>E|

